icons/triangle-arrow-right.svg

<svg xmlns="http://www.w3.org/2000/svg" width="24" height="24" viewBox="0 0 24 24">
  <path d="M9.37135227,3.70432092 C10.1698214,2.25255887 11.9939942,1.72296031 13.4457562,2.52142944 C13.9442354,2.79559297 14.3544842,3.20584177 14.6286477,3.70432092 L14.6286477,3.70432092 L22.2461053,17.5542438 C23.0445744,19.0060058 22.5149759,20.8301786 21.0632138,21.6286477 C20.6202789,21.8722619 20.1229665,22 19.6174576,22 L19.6174576,22 L4.38254244,22 C2.72568819,22 1.38254244,20.6568542 1.38254244,19 C1.38254244,18.4944911 1.5102805,17.9971787 1.75389472,17.5542438 L1.75389472,17.5542438 Z M12.6128994,10.2097046 C12.2206082,9.90467972 11.6533772,9.93240926 11.2928932,10.2928932 C10.9023689,10.6834175 10.9023689,11.3165825 11.2928932,11.7071068 L11.2928932,11.7071068 L12.585,13 L9,13 L8.88337887,13.0067277 C8.38604019,13.0644928 8,13.4871642 8,14 C8,14.5522847 8.44771525,15 9,15 L9,15 L12.585,15 L11.2928932,16.2928932 L11.2097046,16.3871006 C10.9046797,16.7793918 10.9324093,17.3466228 11.2928932,17.7071068 C11.6834175,18.0976311 12.3165825,18.0976311 12.7071068,17.7071068 L12.7071068,17.7071068 L15.7071068,14.7071068 L15.7803112,14.625449 C15.7826279,14.6225624 15.7849289,14.6196628 15.7902954,14.6128994 L15.7902954,14.6128994 L15.8036865,14.5951593 C15.8215099,14.5711307 15.8382813,14.546275 15.8540045,14.5207088 C15.8613931,14.5086131 15.8685012,14.4963944 15.8751242,14.484277 C15.8862061,14.4642939 15.8966234,14.4438914 15.9063266,14.4232215 C15.914321,14.4060985 15.9218036,14.3887956 15.928896,14.3710585 C15.9366843,14.3515792 15.9438775,14.3317977 15.9502619,14.3121425 L15.9502619,14.3121425 L15.964279,14.2658396 C15.9701664,14.2444365 15.9753602,14.2227461 15.9797599,14.2007258 C15.9832978,14.1833753 15.9863719,14.165949 15.9889807,14.1489612 L15.9889807,14.1489612 L15.9965424,14.0745191 L15.9982669,14.0590314 L15.999,14.019 L16,14 L16,14 L15.9998198,13.980824 L15.9982669,13.9409686 C15.9976744,13.9308872 15.99693,13.9208131 15.996002,13.909968 C15.9942339,13.890153 15.9918878,13.8705042 15.9889822,13.8515331 C15.9863719,13.834051 15.9832978,13.8166247 15.9798348,13.7992059 C15.9753602,13.7772539 15.9701664,13.7555635 15.9641549,13.734007 L15.9641549,13.734007 L15.9504533,13.6882636 C15.9438775,13.6682023 15.9366843,13.6484208 15.9287745,13.628664 C15.9218036,13.6112044 15.914321,13.5939015 15.9063462,13.5769009 C15.8966234,13.5561086 15.8862061,13.5357061 15.8753288,13.5159379 C15.8685012,13.5036056 15.8613931,13.4913869 15.8539326,13.4793398 C15.8382813,13.453725 15.8215099,13.4288693 15.8036654,13.4046934 L15.8036654,13.4046934 L15.787214,13.3832499 C15.7849289,13.3803372 15.7826279,13.3774376 15.7803112,13.374551 L15.7803112,13.374551 L15.757792,13.347434 L15.757792,13.347434 L15.7071068,13.2928932 L12.7071068,10.2928932 Z"/>
</svg>

<svg xmlns="http://www.w3.org/2000/svg" viewBox="0 0 24 24">
  <path d="M9.37 3.7a3 3 0 0 1 5.26 0l7.62 13.85A3 3 0 0 1 19.62 22H4.38a3 3 0 0 1-2.63-4.45zm3.24 6.51a1 1 0 0 0-1.32 1.5L12.6 13H8.88A1 1 0 0 0 9 15h3.59l-1.3 1.3-.08.09a1 1 0 0 0 1.5 1.32l3-3 .07-.08.01-.02.01-.01a1.04 1.04 0 0 0 .15-.29l.01-.04a.94.94 0 0 0 .03-.12v-.13L16 14v-.06a1.15 1.15 0 0 0-.04-.2l-.01-.05a.99.99 0 0 0-.15-.29l-.01-.02h-.01l-.02-.03-.05-.06-3-3z"/>
</svg>
